X: 4655
T: Boy In The Boat, The
R: reel
M: 4/4
K: Dmajor
|:A2AF DFAF|GFEF G2FG|AD (3FED AD (3FED|AFGE DEFG|
A2AF DFAF|GFEF G2FG|~A3d ~B3d|1 cAGE DEFG:|2 cAGE EDD2||
|:(3Bcd ed cAAB|cAdB cA~A2|(3Bcd ed cAAB|cAGE EDD2|
(3Bcd ed cAAB|cAdB cAAe|~f3d ~e3d|1 cAGE EDD2:|2 cAGE DEFG||

